X:1
T:Marnie, Come Fare Away
M:4/4
L:1/4
K:G
 D2 B,3/2 A,/2| G,2 B, D| G2 A3/2 G/2| E2 D2| D2 G3/2 A/2| B2 A3/2 G/2|\
 A2 A B| A4| D2 B,3/2 A,/2| G,2 B, D| G2 A3/2 G/2| E2 D2| D2 G3/2 A/2|\
 B2 A2| G4-| G3 z| B2 B3/2- A/2| A G3/4 G/4 G2| D G3/4 A/4 BB/2-A/2|\
 A4| B2 B3/2- A/2| A G/2G/2 G2| D G/2B/2 B A| G3 z|
